packages/icons/svgs/solid/Source=pulse.svg

<svg xmlns="http://www.w3.org/2000/svg" width="12" height="12" viewBox="0 0 12 12"><g clip-path="url(#a)"><path d="M7.5 11.25a.72.72 0 0 1-.675-.525L4.35 3.45 2.925 6.3c-.15.3-.375.45-.675.45H0v-1.5h1.8L3.825 1.2c.15-.3.45-.45.75-.45s.525.225.675.525l2.4 7.275L9.075 5.7c.15-.3.375-.45.675-.45H12v1.5h-1.8L8.175 10.8c-.15.3-.375.45-.675.45Z"/></g><defs><clipPath id="a"><path fill="#fff" d="M0 0h12v12H0z"/></clipPath></defs></svg>

<svg width="12" height="12" viewBox="0 0 12 12" fill="none" xmlns="http://www.w3.org/2000/svg">
<g clip-path="url(#clip0_1928_907)">
<path d="M7.5 11.25C7.2 11.25 6.9 11.025 6.825 10.725L4.35 3.45L2.925 6.3C2.775 6.6 2.55 6.75 2.25 6.75H0V5.25H1.8L3.825 1.2C3.975 0.9 4.275 0.75 4.575 0.75C4.875 0.75 5.1 0.975 5.25 1.275L7.65 8.55L9.075 5.7C9.225 5.4 9.45 5.25 9.75 5.25H12V6.75H10.2L8.175 10.8C8.025 11.1 7.8 11.25 7.5 11.25Z" fill="black"/>
</g>
<defs>
<clipPath id="clip0_1928_907">
<rect width="12" height="12" fill="white"/>
</clipPath>
</defs>
</svg>
